packages/icons/src/text.svg

<svg width="15" height="15" viewBox="0 0 15 15" fill="none" xmlns="http://www.w3.org/2000/svg">
  <path
    fill-rule="evenodd"
    clip-rule="evenodd"
    d="M3.94993 2.95002L3.94993 4.49998C3.94993 4.74851 3.74845 4.94998 3.49993 4.94998C3.2514 4.94998 3.04993 4.74851 3.04993 4.49998V2.50004C3.04993 2.45246 3.05731 2.40661 3.07099 2.36357C3.12878 2.18175 3.29897 2.05002 3.49993 2.05002H11.4999C11.6553 2.05002 11.7922 2.12872 11.8731 2.24842C11.9216 2.32024 11.9499 2.40682 11.9499 2.50002L11.9499 2.50004V4.49998C11.9499 4.74851 11.7485 4.94998 11.4999 4.94998C11.2514 4.94998 11.0499 4.74851 11.0499 4.49998V2.95002H8.04993V12.05H9.25428C9.50281 12.05 9.70428 12.2515 9.70428 12.5C9.70428 12.7486 9.50281 12.95 9.25428 12.95H5.75428C5.50575 12.95 5.30428 12.7486 5.30428 12.5C5.30428 12.2515 5.50575 12.05 5.75428 12.05H6.94993V2.95002H3.94993Z"
    fill="currentColor"
  />
</svg>

<svg xmlns="http://www.w3.org/2000/svg" width="15" height="15" fill="none"><path fill="currentColor" fill-rule="evenodd" d="M3.95 2.95V4.5a.45.45 0 0 1-.9 0v-2a.45.45 0 0 1 .45-.45h8a.45.45 0 0 1 .45.45v2a.45.45 0 1 1-.9 0V2.95h-3v9.1h1.204a.45.45 0 0 1 0 .9h-3.5a.45.45 0 1 1 0-.9H6.95v-9.1z" clip-rule="evenodd"/></svg>
